X: 1
T: Namibe
M: 4/4
L: 1/8
R: reel
K: Emin
|: BFAF ~E3F | GAB^c dB~B2 | gefd ~e3d | edcB cBFA|
BFAF ~E3F | GABc dB~B2 | gefd efga | bfaf ~e3A :|
B2eB gBaB | ~f3f fedA | B2eB gBa2 | bagf gfed |
B2eB gBaB | ~f3f fedA | BAGF EFGA | BFAF ~E3A |
B2eB gBaB | ~f3f fedA | B2eB gBa2 | bagf gfed |
B2eB aBgB | ~f3f fedA | BAGF EFGA | BFAF ~E3A |
